.local/share/icons/Gruvbox-Plus-Dark/actions/symbolic/tool-magic-symbolic.svg

<svg width="16" height="16" version="1.1" xmlns="http://www.w3.org/2000/svg">
  <defs>
    <style id="current-color-scheme" type="text/css">.ColorScheme-Text { color:#ebdbb2; } .ColorScheme-Highlight { color:#458588; }</style>
  </defs>
  <path class="ColorScheme-Text" d="m3.512 1.812-0.6738 2.039-2.037 0.6718 2.037 0.6739 0.6738 2.039 0.6738-2.039 2.039-0.6739-2.039-0.6718zm7.035-0.0449-0.201 0.6113-0.6116 0.2031 0.6116 0.2012 0.201 0.6113 0.203-0.6113 0.611-0.2012-0.611-0.2031zm-3.055-0.9024-0.4024 1.223-1.225 0.4043 1.225 0.4043 0.4024 1.223 0.4043-1.223 1.225-0.4043-1.225-0.4043zm6.154 2.135-10.65 10.65 1.354 1.354 10.65-10.65z" fill="currentColor"/>
</svg>

<svg xmlns="http://www.w3.org/2000/svg" width="16" height="16" version="1.1">
 <path style="fill:#555555" d="M 3.5117,1.8123 2.8379,3.8514 0.80078,4.5232 2.8379,5.1971 3.5117,7.2361 4.1855,5.1971 6.2246,4.5232 4.1855,3.8514 Z M 10.547,1.7674 10.346,2.3787 9.7344,2.5818 10.346,2.783 10.547,3.3943 10.75,2.783 11.361,2.5818 10.75,2.3787 Z M 7.4922,0.865 7.0898,2.0877 5.8652,2.492 7.0898,2.8963 7.4922,4.1189 7.8965,2.8963 9.1211,2.492 7.8965,2.0877 Z M 13.646,3 3,13.646 4.3535,15 15,4.3535 Z"/>
</svg>
